!!!!SEGMENT: pl-kc--40102-iii-1-saf--001-015_zielenski-mikolaj--offertoria-totius-anni-commune-sanctorum-veritas-mea.krn
!!!cenid: 16xx:1493
!!!COM: Zieleński, Mikołaj
!!!COM-rismID: pe30013481
!!!CDT: <1611->1611
!!!CNT: Polish
!!!GTL: Offertoria totius anni
!!!OTL: Commune Sanctorum/Veritas mea
!!!OMV: 015
!!!PDT: 1611
!!!AGN:
!!!YEC: Copyright 2022 Narodowy Instytut Fryderyka Chopina (https://polishscores.org)
!!!YEM: License CC-BY-4.0 (https://creativecommons.org/licenses/by/4.0)
!!!SMS-siglum: PL-Kc
!!!SMS-shelfmark: 40102 III/1 Saf.
!!!SMS-shelfwork: 001-015 G
!!!SMS-variant:
!!!SMS-altvar:
!!!NIFC-rismSourceID: 990069886
!!!NIFC-rismChildID: 990069886
!!!NIFC-islandoraID: none
!!!URL-pdf-islandora:
!!!URL-scan: https://cyfrowe.mnk.pl/dlibra/publication/24235/edition/23926/content?ref=desc @EN{Scan on The National Museum in Krakow Website} @PL{Skany w portalu Biblioteka Cyfrowa Muzeum Narodowego w Krakowie}
!!!IIIF:
!!!ONB-nifc: UWAGA: str. 15. Uwaga: W xml metrum 2/1 do źródłowego C| i odpowiednio 3/1 do 3/2
!!!AIN: 4 organ
!!!key:
**kern	**kern	**kern	**kern
*group1	*group1	*group1	*group1
*part4	*part3	*part2	*part1
*staff4	*staff3	*staff2	*staff1
*I""Organo	*I""Organo	*I""Organo	*I""Organo
*I''org	*I''org	*I''org	*I''org
*Iorgan	*Iorgan	*Iorgan	*Iorgan
*ICklav	*ICklav	*ICklav	*ICklav
*clefF4	*clefC3	*clefC3	*clefG2
*k[]	*k[]	*k[]	*k[]
*d:	*d:	*d:	*d:
*M2/1	*M2/1	*M2/1	*M2/1
*met(C|)	*met(C|)	*met(C|)	*met(C|)
=1	=1	=1	=1
!	!	!LO:TX:a:t=Veritas mea	!LO:TX:a:t=Commune Sanctorum. A 7
00r	00r	1.a	1.ee
.	.	2a\	2ee\
=2-	=2-	=2-	=2-
.	.	1d	1ff
.	.	1g	1dd
=3	=3	=3	=3
00r	00r	2c/	2ee\
.	.	1f	1cc
.	.	2f\	2cc\
=4-	=4-	=4-	=4-
.	.	2f\	2dd\
.	.	2e\	2ee\
.	.	2.d\	2.ff\
.	.	4d\	4ff\
=5	=5	=5	=5
00r	00r	1c	2ee\
.	.	.	2.gg\
.	.	2.g\	.
.	.	.	8ff\
.	.	.	8ee\
.	.	.	4dd\
.	.	8f\	4ee\
.	.	8e\	.
=6-	=6-	=6-	=6-
.	.	4d\	2ff\
.	.	4e\	.
.	.	4f\	1cc
.	.	8e\	.
.	.	8d\	.
.	.	4c/	.
.	.	4A/	.
.	.	2d\	[<2ff\
=7	=7	=7	=7
0r	0r	2d\	2ff\]
.	.	2c#X/	2.ee\
.	.	1d	.
.	.	.	8dd\
!	!	!	!LO:SIC:v:o=8cc\
.	.	.	8cc#\
.	.	.	2dd\
=8-	=8-	=8-	=8-
2r	1.a	0A	1ee
1AA	.	.	.
.	.	.	1r
2AA/	2a\	.	.
=9	=9	=9	=9
1D	1f#X	00r	00r
1GG	1g	.	.
=10-	=10-	=10-	=10-
2C/	2e\	.	.
1FF	1a	.	.
2FF/	2a\	.	.
=11	=11	=11	=11
2FF/	2a\	0r	0r
2GG/	2g\	.	.
2AA/	2f\	.	.
!LO:N:vis=2.	!	!	!
4.BB/	4e\	.	.
.	4d\	.	.
!LO:N:vis=4	!	!	!
8C/	.	.	.
=12	=12	=12	=12
2C#X/	2a\	0r	0r
2D/	2a\	.	.
2GG/	4g\	.	.
.	4f\	.	.
[y2Cny/	4e\	.	.
.	4d\	.	.
=13	=13	=13	=13
!LO:N:xstem:cue	!	!	!
4C/]	2c/	00r	00r
4BB/	.	.	.
4AA/	2e\	.	.
4GG/	.	.	.
2FF/	2f\	.	.
2C/	2.e\	.	.
=14-	=14-	=14-	=14-
1.AA	.	.	.
.	4d\	.	.
.	2.d\	.	.
.	8c#X/	.	.
.	8B/	.	.
2AA/	2c#/	.	.
=15	=15	=15	=15
1BB	1d	2r	2r
.	.	1d	1a
1r	1r	.	.
.	.	2B/	2b/
=16-	=16-	=16-	=16-
0r	0r	2c/	2g/
.	.	2G/	2dd\
.	.	2.A/	2.cc\
.	.	4A/	4cc\
=17	=17	=17	=17
2r	2r	2e\	2b/
1E	1g#X	1e	1ee
2C#X/	2a\	2e\	2ee\
=18-	=18-	=18-	=18-
2D/	2d\	2A/	2dd\
2BB/	2d\	2B/	2dd\
2.AA/	2.a\	2.e\	2.cc\
4AA/	4a\	4e\	4cc\
=19	=19	=19	=19
1E	1g#X	2e\	2b\
.	.	2.e\	1ee
2r	2r	.	.
.	.	4d\	.
2C/	1gny	2c/	2.gg\
=20-	=20-	=20-	=20-
2.E\	.	1.B	.
.	.	.	4ff\
.	1g	.	2ee\
4F\	.	.	.
2G\	.	.	2dd\
*custos:GG	*custos:g	*custos:d	*custos:b
2C/	2g\	2c/	[y2cc\
!!LO:LB:g=original
=21	=21	=21	=21
!	!	!	!LO:N:xstem:cue
1GG	1g	1d	4cc\]
.	.	.	8b-X/
.	.	.	8a/
.	.	.	2b-/
1C	1g	2e\	2cc\
.	.	2c/	2ee\
=22-	=22-	=22-	=22-
0r	0r	4g\	4dd\
.	.	4.e\	4.ee\
.	.	8e\	8ee\
.	.	4f\	4cc\
.	.	1d	1dd
=23	=23	=23	=23
2r	2r	1e	2b/
2AA/	2a\	.	2r
4E\	4g#X\	0r	0r
4.C/	4.a\	.	.
8C/	8a\	.	.
4D\	4f\	.	.
=24-	=24-	=24-	=24-
1E	1e	.	.
1AA	1e	2r	2r
.	.	2c/	2ee\
=25	=25	=25	=25
0r	0r	4e\	4gg\
.	.	4.d\	4.ff\
.	.	8d\	8ff\
.	.	4c/	4ee\
.	.	1g	4dd\
.	.	.	4ee\
.	.	.	2dd\
=26-	=26-	=26-	=26-
1r	1r	2c/	2ee\
.	.	4A/	4ee\
.	.	4A/	4ee\
2r	2r	4.d\	4.dd\
.	.	8d\	8dd\
4AA/	4a\	2A/	2cc#X\
4AA/	4a\	.	.
=27	=27	=27	=27
4.D/	4.f\	2r	2r
8D/	8f\	.	.
2.AA/	2e\	4A/	4ee\
.	.	4A/	4ee\
.	2r	4.d\	4.dd\
!LO:TX:a:t=P:problem=brak pauzy 4r	!	!	!
4ryy	.	.	.
.	.	8d\	8dd\
4AA/	4a\	2A/	2cc#X\
4AA/	4a\	.	.
=28-	=28-	=28-	=28-
4.D/	4.f\	2r	2r
8D/	8f\	.	.
2AA/	2e\	4A/	4ee\
.	.	4A/	4ee\
1r	1r	4.d\	4.ff\
.	.	8d\	8ff\
.	.	4g\	4dd\
.	.	[<4c/	[<4gg\
=29	=29	=29	=29
1r	1r	4c/]	4gg\]
.	.	4d\	4ff\
.	.	2a\	2ee\
2r	2r	1d	1ff#X
4D/	4a\	.	.
4D/	4a\	.	.
=30-	=30-	=30-	=30-
4.G\	4.g\	0r	0r
8G\	8g\	.	.
4D/	4f#X\	.	.
2BB/	2g\	.	.
4C/	4g\	.	.
2AA/	2a\	.	.
=31	=31	=31	=31
2.GG/	2d\	0r	0r
.	2g\	.	.
4G\	.	.	.
4E\	4g\	.	.
!	!LO:N:vis=4	!	!
4.F\	4.a\	.	.
8F\	8a\	.	.
4D/	4f\	.	.
=32-	=32-	=32-	=32-
1AA	1e	1r	1r
1D	1f#X	2r	2r
.	.	4r	4r
.	.	4d\	4dd\
=33	=33	=33	=33
0r	0r	4B/	4dd\
.	.	4.c/	4.ee\
.	.	8c/	8ee\
.	.	4A/	4cc\
.	.	1e	1b
=34-	=34-	=34-	=34-
2r	2r	2A/	2cc#X\
2AA/	2a\	2A/	2ee\
2D/	2a\	2A/	2ff#X\
[y2GG/	[y2g\	[y2d\	[y2gg\
=35	=35	=35	=35
!LO:N:xstem:cue	!LO:N:xstem:cue	!LO:N:xstem:cue	!LO:N:xstem:cue
4GG/]	4g\]	4d\]	4gg\]
4GG/	4g\	4d\	4gg\
2GG/	2g\	2d\	2gg\
1D	1a	1d	1ff
=36-	=36-	=36-	=36-
1AA	1a	2a\	2ee\
.	.	4A/	4ee\
.	.	4A/	4ee\
2r	2r	4.d\	4.ff\
.	.	8d\	8ff\
4AA/	4a\	2A/	2ee\
4AA/	4a\	.	.
=37	=37	=37	=37
4.D/	4.f\	2r	2r
8D/	8f\	.	.
2AA/	2e\	4A/	4ee\
.	.	4A/	4ee\
2r	2r	4.d\	4.ff\
.	.	8d\	8ff\
4AA/	4a\	2A/	2ee\
4AA/	4a\	.	.
=38-	=38-	=38-	=38-
4.D/	4.f\	2r	2r
8D/	8f\	.	.
2AA/	2e\	4A/	4ee\
.	.	4A/	4ee\
2r	2r	2d\	[y1ff
4D/	4a\	2d\	.
4D/	4a\	.	.
=39	=39	=39	=39
!	!	!	!LO:N:xstem:cue:vis=4
2F\	2a\	1A	2ff\]
2FF/	2a\	.	2ff\
1C	1g	2r	2ee\
.	.	4c/	4cc\
.	.	4c/	4cc\
=40-	=40-	=40-	=40-
2r	2r	2c/	2ee\
4GG/	4g\	2d\	2gg\
4GG/	4g\	.	.
4.D/	4.a\	2d\	2ff#X\
8D/	8a\	.	.
[>2GG/	[>2g\	4d\	4gg\
.	.	4d\	4gg\
=41	=41	=41	=41
2GG/]	2g\]	4.g\	4.dd\
.	.	8g\	8dd\
2.G\	1d	1g	1dd
4F\	.	.	.
4E\	2.e\	1G	2.gg\
4D/	.	.	.
=42-	=42-	=42-	=42-
1C	.	.	.
.	4e\	.	4ff\
.	2e\	2c/	4ee\
.	.	.	4dd\
*custos:F	*custos:f	*custos:c	*custos:cc
!!LO:LB:g=original
2.F\	2f\	1c	2cc\
.	[y2f\	.	[y2ff\
4E\	.	.	.
=43	=43	=43	=43
!	!LO:N:xstem:cue	!	!LO:N:xstem:cue
2D/	4f\]	2d\	4ff\]
.	4d\	.	4ff\
2C#X/	2a\	2e\	2.ee\
1D	1a	2.f\	.
.	.	.	8dd\
!	!	!	!LO:SIC:v:o=8cc\
.	.	.	8cc#\
.	.	.	2dd\
.	.	4f\	.
=44-	=44-	=44-	=44-
1AA	1a	2e\	2ee\
.	.	4A/	4ee\
.	.	4A/	4ee\
2r	2r	4.d\	4.ff\
.	.	8d\	8ff\
4D/	4f#X\	2d\	2dd\
4D/	4f#\	.	.
=45	=45	=45	=45
4.G\	4.g\	2r	2r
8G\	8g\	.	.
2E\	2g\	4e\	4gg\
.	.	4e\	4gg\
4C/	4g\	2e\	4.ee\
4C/	4g\	.	.
.	.	.	8dd\
4.F\	4.a\	2f\	4cc\
.	.	.	2ff\
8E\	8g\	.	.
=46-	=46-	=46-	=46-
4D/	4f\	2f\	.
4D/	4f\	.	4dd\
2A\	2e\	2c/	2.ee\
2G\	2g\	2d\	.
.	.	.	4dd\
2D/	[y2a\	2f\	[y2dd\
=47	=47	=47	=47
!	!LO:N:xstem:cue	!	!LO:N:xstem:cue
1AA	4a\]	1e	4dd\]
.	4g\	.	8cc#X\
.	.	.	8b/
.	2e\	.	2cc#\
2D/	2f#X\	2d\	2dd\
1D	4fny\	4d\	4aa\
.	4f\	4d\	4aa\
=48-	=48-	=48-	=48-
.	4.a\	4.d\	4.ff\
.	8a\	8d\	8ff\
2AA/	1a	2e\	2ee\
[y1D	.	2f\	4dd\
.	.	.	4ee\
.	4d\	2a\	4ff\
.	4e\	.	4gg\
=49	=49	=49	=49
!LO:N:xstem:cue:vis=4	!	!LO:N:vis=2	!
2D\]	4f\	4a\	2aa\
!	!	!LO:N:vis=2	!
.	4e\	4d\	.
2D/	4f\	4d\	2aa\
.	4g\	4e\	.
0.D	2a\	4f\	2.ff\
.	.	4g\	.
.	2a\	2a\	.
.	.	.	4ee\
=50-	=50-	=50-	=50-
.	2.d\	2f\	4ff\
.	.	.	4dd\
.	.	2.f\	2.aa\
.	4e\	.	.
.	4f\	.	.
.	4g\	8e\	4gg\
.	.	8d\	.
!	!	!LO:N:vis=1	!
.	2a\	2a\	2ff\
=51	=51	=51	=51
0AAl	0al	0el	0eel
==	==	==	==
*-	*-	*-	*-
!!!system-decoration: *
!!!RDF**kern: > = above
!!!RDF**kern: < = below
!!!RDF**kern: l = terminal long
!!!ENC: Anastazja Marusiak
!!!END: 2021-12-10
!!!ENC: Andrzej Kubiczek
!!!END: 2021-12-19
